X:1
T:Title
%%score { ( 1 3 ) | ( 2 4 5 ) }
L:1/8
M:3/4
K:Bb
V:1 treble nm="Grand Piano"
V:3 treble 
V:2 treble 
V:4 treble 
V:5 treble 
V:1
 z6[Q:1/4=118] | B4 AB | c4 Bc | [Gd]4 BA | G4 GA | B4 AG | F4[K:bass] ED | C4 G,E, | %8
 z2 z2[K:treble] .G2 | B4 AB | c4 Bc | [Gd]4 BA | G4 GA | B4 AG | F4 [Ec]2 | B6- | B4 z2 | %17
 [GB]4 BA | G4 G2 | [Ge]4 ed | [Gc]4 cB | [FA]4 AG | F4 F2 | [Fd]4 dc | [GB]4 BA | G4 GF | E4 E2 | %27
 [Gc]4 cB | [FA]4 AG | F4 F2 | [Fe]4 [Ac]2 | [Bd]6- |[M:2/4] [Bd]4 |[M:1/4] z2 |[M:3/4] [GB]4 BA | %35
 G4 GF | E6- | E2 z2 cB | [FA]4 AG | F4 FE | D2 z2 z2 | z2 z2 BA | G4 GF | E4 ED | %44
 C4[K:bass] G,E, | C,E, G,[K:treble]C B,C | D2 z2 E2 | F4 D2 | [G,B,G]6- |[M:2/4] [G,B,G]4 |] %50
V:2
 z2 z2 GA | z2 D2[K:bass] z2 | z2[K:treble] E2 z2 | G,[K:bass]B, DB, DB, | z2 D2 z2 | z2 D2 z2 | %6
 z2 D2 z2 | C,E, G,[K:treble] C3- | C4 z A | z2 D2[K:bass] z2 | z2[K:treble] E2 z2 | %11
 G,[K:bass]B, DB, DB, | z2 D2 z2 | z2 D2 z2 | F,B, CA, F,2 | z2 D4- | D4[K:treble] z2 | %17
 G,B, D[K:bass]B, DB, | G,B, DB, DB, | G,[K:treble]C EC EC | G,C EC EC | F,C EC EC | %22
 F,[K:treble]C EC EC | F,B, DB, DB, | G,B, DB, DB, | G,B, DB, DB, | G,C G,E, G,[K:treble]C | %27
 G,C EC EC | F,C EC EC | F,[K:treble]C EC EC | F,C EC E[K:treble]C | [G,B,D]6- |[M:2/4] [G,B,D]4 | %33
[M:1/4] dc |[M:3/4][K:bass] G,B, DB, DB, | G,B, DB, DB, | G,C G,E, G,[K:treble]C | z2 E2 z2 | %38
 F,C EC EC | F,[K:treble]C EC EC | z2 D2 D2- | D2 D2 z2 | G,B, DB, DB, | G,C G,E, G,B, | %44
 C,E, G, C3- | C4 G,E, | z2 D2 z2 | F,C EC A,F, | G,,6- |[M:2/4] G,,4 |] %50
V:3
 x6 | D2 z2 z2 | E2 z2 z2 | x6 | D2 z2 z2 | D2 z2 z2 | D2 z2[K:bass] z2 | x6 | C,6[K:treble] | %9
 D2 z2 z2 | E2 z2 z2 | x6 | D2 z2 z2 | D2 z2 z2 | x6 | D2 z2 z2 | x6 | x6 | x6 | x6 | x6 | x6 | %22
 x6 | x6 | x6 | x6 | x6 | x6 | x6 | x6 | x6 | x6 |[M:2/4] x4 |[M:1/4] x2 |[M:3/4] x6 | x6 | x6 | %37
 x6 | x6 | x6 | x6 | x6 | x6 | x6 | x4[K:bass] x2 | x3[K:treble] x3 | x6 | x6 | x6 |[M:2/4] x4 |] %50
V:4
 x6 | G,A, z[K:bass] B, DB, | G,C[K:treble] z C EC | x[K:bass] x5 | G,B, z B, DB, | G,B, z B, DB, | %6
 F,A, z A, F,D, | x3[K:treble] x3 | x6 | G,A, z[K:bass] B, DB, | G,C[K:treble] z C EC | %11
 x[K:bass] x5 | G,B, z B, DB, | G,B, z B, DB, | x6 | G,B, z B, G,D, | z2 z2[K:treble] dc | %17
 x3[K:bass] x3 | x6 | x[K:treble] x5 | x6 | x6 | x[K:treble] x5 | x6 | x6 | x6 | x5[K:treble] x | %27
 x6 | x6 | x[K:treble] x5 | x5[K:treble] x | x6 |[M:2/4] x4 |[M:1/4] x2 |[M:3/4][K:bass] x6 | x6 | %36
 x5[K:treble] x | G,C z C EC | x6 | x[K:treble] x5 | G,B, z B, z B, | E,B, z B, DB, | x6 | x6 | %44
 x6 | x6 | G,B, z B, CB, | x6 | x6 |[M:2/4] x4 |] %50
V:5
 x6 | x3[K:bass] x3 | x2[K:treble] x4 | x[K:bass] x5 | x6 | x6 | x6 | x3[K:treble] x3 | x6 | %9
 x3[K:bass] x3 | x2[K:treble] x4 | x[K:bass] x5 | x6 | x6 | x6 | x6 | G,6[K:treble] | %17
 x3[K:bass] x3 | x6 | x[K:treble] x5 | x6 | x6 | x[K:treble] x5 | x6 | x6 | x6 | x5[K:treble] x | %27
 x6 | x6 | x[K:treble] x5 | x5[K:treble] x | x6 |[M:2/4] x4 |[M:1/4] x2 |[M:3/4][K:bass] x6 | x6 | %36
 x5[K:treble] x | x6 | x6 | x[K:treble] x5 | x6 | x6 | x6 | x6 | x6 | x6 | x6 | x6 | x6 | %49
[M:2/4] x4 |] %50

